i/merch.svg

<?xml version="1.0" encoding="UTF-8" standalone="no"?>
<!DOCTYPE svg PUBLIC "-//W3C//DTD SVG 1.1//EN" "http://www.w3.org/Graphics/SVG/1.1/DTD/svg11.dtd">
<svg width="100%" height="100%" viewBox="0 0 461 71" version="1.1" xmlns="http://www.w3.org/2000/svg" xmlns:xlink="http://www.w3.org/1999/xlink" xml:space="preserve" xmlns:serif="http://www.serif.com/" style="fill-rule:evenodd;clip-rule:evenodd;stroke-linejoin:round;stroke-miterlimit:2;">
    <path d="M460.96,35.3C460.96,54.783 445.143,70.6 425.66,70.6L35.3,70.6C15.817,70.6 0,54.783 0,35.3C0,15.817 15.817,0 35.3,0L425.66,0C445.143,0 460.96,15.817 460.96,35.3Z" style="fill:rgb(216,14,130);"/>
    <g transform="matrix(1,0,0,1,7,0)">
        <g transform="matrix(1.20841,0,0,1.20841,139.185,-8.56537)">
            <path d="M37.5,22.54L43.79,22.54L50.81,37.4L57.87,22.54L64.06,22.54L64.06,50.05L57.36,50.05L57.36,37.81L51.35,50.97L50.25,50.97L44.24,37.72L44.24,50.05L37.5,50.05L37.5,22.54ZM42.55,48.77L42.55,33.73L39.2,26.21L39.2,48.77L42.55,48.77ZM57.36,34.23L57.36,27.26L51.77,39.23L53.28,42.9L57.36,34.23Z" style="fill:white;fill-rule:nonzero;"/>
        </g>
        <g transform="matrix(1.20841,0,0,1.20841,139.185,-8.56537)">
            <path d="M68.47,22.54L86.67,22.54L86.67,28.5L75.21,28.5L75.21,33.45L85.8,33.45L85.8,39.32L75.21,39.32L75.21,44.27L87.18,44.27L87.18,50.05L68.47,50.05L68.47,22.54ZM73.51,45.56L73.51,27.22L70.16,23.83L70.16,48.77L73.51,45.56Z" style="fill:white;fill-rule:nonzero;"/>
        </g>
        <g transform="matrix(1.20841,0,0,1.20841,139.185,-8.56537)">
            <path d="M90.43,22.54L101.94,22.54C107.86,22.54 111.71,26.12 111.71,31.3C111.71,36.11 109.28,38.82 105.2,39.83L112.63,50.05L104.19,50.05L97.17,39.78L97.17,50.05L90.43,50.05L90.43,22.54ZM95.47,48.77L95.47,23.83L92.12,23.83L92.12,48.77L95.47,48.77ZM102.58,34.46C104.09,34.46 105.1,32.9 105.1,31.3C105.1,29.7 103.91,28.27 102.39,28.27L97.16,28.27L97.16,34.46L102.58,34.46Z" style="fill:white;fill-rule:nonzero;"/>
        </g>
        <g transform="matrix(1.20841,0,0,1.20841,139.185,-8.56537)">
            <path d="M130.19,21.63C135.42,21.63 139.04,23.6 141.98,26.67L137.35,31.07C135.42,29.19 132.95,28 130.2,28C125.29,28 122.13,31.67 122.13,36.3C122.13,40.93 125.29,44.6 130.2,44.6C132.95,44.6 135.43,43.41 137.35,41.53L141.84,45.93C139.09,48.82 135.28,50.97 130.19,50.97C121.48,50.97 115.29,44.51 115.29,36.3C115.29,28.09 121.48,21.63 130.19,21.63ZM137.3,29.2L139.91,26.68C137.48,24.2 134.32,22.92 130.19,22.92L130.19,26.73C132.81,26.73 135.33,27.69 137.3,29.21L137.3,29.2ZM139.82,46.03L137.21,43.37C135.56,44.84 132.95,45.89 130.19,45.89L130.19,49.7C134.23,49.7 137.25,48.42 139.82,46.03Z" style="fill:white;fill-rule:nonzero;"/>
        </g>
        <g transform="matrix(1.20841,0,0,1.20841,139.185,-8.56537)">
            <path d="M145.24,22.54L151.98,22.54L151.98,33.36L162.76,33.36L162.76,22.54L169.45,22.54L169.45,50.05L162.76,50.05L162.76,39.18L151.98,39.18L151.98,50.05L145.24,50.05L145.24,22.54ZM150.28,48.77L150.28,39.19L146.93,39.19L146.93,48.77L150.28,48.77ZM167.75,48.77L167.75,39.19L164.45,39.19L164.45,48.77L167.75,48.77Z" style="fill:white;fill-rule:nonzero;"/>
        </g>
        <g transform="matrix(0.473204,0,0,0.473204,137.868,6.7017)">
            <path d="M0,120.511C39.835,120.511 72.128,94.128 72.128,60.639C72.128,27.149 39.835,0 0,0C-39.835,0 -72.128,27.149 -72.128,60.639C-72.128,61.143 -72.119,61.646 -72.104,62.147C-72.066,63.391 -72.588,64.618 -73.61,65.328C-73.872,65.509 -74.143,65.651 -74.426,65.745C-77.872,66.894 -78.511,65.617 -80.17,66.511C-81.83,67.405 -83.106,68.937 -78.894,78.128C-74.681,87.32 -61.234,108.002 -26.969,116.896C-13.532,120.383 0,120.511 0,120.511" style="fill:white;fill-rule:nonzero;"/>
        </g>
        <g transform="matrix(0.473204,0,0,0.473204,120.763,31.2361)">
            <path d="M0,12.258C-5.901,12.258 -11.001,9.345 -13.737,6.821C-15.157,5.509 -15.246,3.295 -13.935,1.875C-12.628,0.459 -10.421,0.365 -9,1.666C-8.077,2.499 0.164,9.477 8.669,1.336C10.066,0 12.282,0.048 13.618,1.444C14.955,2.84 14.906,5.055 13.51,6.392C8.986,10.723 4.282,12.258 0,12.258" style="fill:rgb(237,36,142);fill-rule:nonzero;"/>
        </g>
        <g transform="matrix(0.473204,0,0,0.473204,156.201,31.2361)">
            <path d="M0,12.258C-5.901,12.258 -11.001,9.345 -13.737,6.821C-15.157,5.509 -15.246,3.295 -13.935,1.875C-12.628,0.459 -10.421,0.365 -9,1.667C-8.073,2.503 0.167,9.475 8.669,1.336C10.066,0 12.282,0.048 13.618,1.444C14.955,2.84 14.906,5.055 13.51,6.392C8.986,10.723 4.282,12.258 0,12.258" style="fill:rgb(237,36,142);fill-rule:nonzero;"/>
        </g>
        <g transform="matrix(0.473204,0,0,0.473204,142.867,40.4161)">
            <path d="M0,12.562C-4.231,12.562 -7.569,10.654 -9.734,8.913C-11.899,10.654 -15.237,12.562 -19.468,12.562C-28.213,12.562 -32.074,6.046 -32.233,5.769C-33.2,4.094 -32.626,1.954 -30.952,0.988C-29.275,0.02 -27.137,0.596 -26.171,2.27C-26.112,2.363 -24.081,5.562 -19.468,5.562C-15.398,5.562 -12.548,1.936 -12.52,1.899C-11.856,1.042 -10.826,0.53 -9.742,0.53L-9.717,0.53C-8.624,0.538 -7.59,1.045 -6.934,1.919C-6.921,1.936 -4.071,5.562 0,5.562C4.612,5.562 6.644,2.363 6.728,2.227C7.694,0.552 9.822,0 11.496,0.966C13.17,1.932 13.731,4.094 12.765,5.769C12.605,6.046 8.745,12.562 0,12.562" style="fill:rgb(237,36,142);fill-rule:nonzero;"/>
        </g>
    </g>
</svg>

<?xml version="1.0" encoding="UTF-8"?><svg id="Layer_1" xmlns="http://www.w3.org/2000/svg" viewBox="0 0 460.96 70.6"><defs><style>.cls-1{fill:none;stroke:#eaeaea;stroke-miterlimit:10;stroke-width:3px;}.cls-2{fill:#d80e82;}.cls-2,.cls-3{stroke-width:0px;}.cls-3{fill:#fff;}</style></defs><rect class="cls-2" x="0" y="0" width="460.96" height="70.6" rx="35.3" ry="35.3"/><path class="cls-3" d="m37.51,22.54h6.28l7.02,14.86,7.06-14.86h6.19v27.51h-6.7v-12.24l-6.01,13.16h-1.1l-6.01-13.25v12.33h-6.74v-27.51Zm5.04,26.23v-15.04l-3.35-7.52v22.56h3.35Zm14.81-14.54v-6.97l-5.59,11.97,1.51,3.67,4.08-8.67Z"/><path class="cls-3" d="m68.47,22.54h18.2v5.96h-11.46v4.95h10.59v5.87h-10.59v4.95h11.97v5.78h-18.71v-27.51Zm5.04,23.02v-18.34l-3.35-3.39v24.94l3.35-3.21Z"/><path class="cls-3" d="m90.43,22.54h11.51c5.92,0,9.77,3.58,9.77,8.76,0,4.81-2.43,7.52-6.51,8.53l7.43,10.22h-8.44l-7.02-10.27v10.27h-6.74v-27.51Zm5.04,26.23v-24.94h-3.35v24.94h3.35Zm7.11-14.31c1.51,0,2.52-1.56,2.52-3.16s-1.19-3.03-2.71-3.03h-5.23v6.19h5.41Z"/><path class="cls-3" d="m130.19,21.63c5.23,0,8.85,1.97,11.79,5.04l-4.63,4.4c-1.93-1.88-4.4-3.07-7.15-3.07-4.91,0-8.07,3.67-8.07,8.3s3.16,8.3,8.07,8.3c2.75,0,5.23-1.19,7.15-3.07l4.49,4.4c-2.75,2.89-6.56,5.04-11.65,5.04-8.71,0-14.9-6.46-14.9-14.67s6.19-14.67,14.9-14.67Zm7.11,7.57l2.61-2.52c-2.43-2.48-5.59-3.76-9.72-3.76v3.81c2.62,0,5.14.96,7.11,2.48Zm2.52,16.83l-2.61-2.66c-1.65,1.47-4.26,2.52-7.02,2.52v3.81c4.04,0,7.06-1.28,9.63-3.67Z"/><path class="cls-3" d="m145.24,22.54h6.74v10.82h10.78v-10.82h6.69v27.51h-6.69v-10.87h-10.78v10.87h-6.74v-27.51Zm5.04,26.23v-9.58h-3.35v9.58h3.35Zm17.47,0v-9.58h-3.3v9.58h3.3Z"/><line class="cls-1" x1="187.53" y1="13.23" x2="187.53" y2="58.23"/><path class="cls-3" d="m204.05,35.69c0-7.48,5.38-13.16,12.35-13.16,3.74,0,5.72,1.68,7.04,1.68.44,0,.75-.17.95-.49h.21v6.07h-.14c-1.53-1.68-4.63-3.26-7.66-3.26-4.7,0-8.37,3.68-8.37,8.95,0,5.58,3.61,9.2,8.95,9.2s7.76-3.47,8.34-3.47c.14,0,.2.14.2.46,0,2.04-2.69,7.05-9.32,7.05-7.01,0-12.56-5.65-12.56-13.02Z"/><path class="cls-3" d="m226.64,35.65c0-7.37,5.61-13.13,12.9-13.13s12.93,5.76,12.93,13.13-5.61,13.06-12.93,13.06-12.9-5.76-12.9-13.06Zm12.9,9.02c5,0,8.54-3.72,8.54-9.02s-3.54-9.09-8.54-9.09-8.54,3.79-8.54,9.09,3.57,9.02,8.54,9.02Z"/><path class="cls-3" d="m254.41,47.76c.68-.53,1.09-1.3,1.09-2.21v-19.86c0-.91-.41-1.68-1.09-2.21v-.14h6.81v.14c-.68.39-1.09,1.12-.44,2l4.49,6.25,4.49-6.25c.65-.88.24-1.61-.44-2v-.14h6.81v.14c-.68.53-1.09,1.3-1.09,2.21v19.86c0,.91.41,1.68,1.09,2.21v.14h-6.53v-.14c.68-.53,1.09-1.3,1.09-2.21v-13.93l-5.34,7.37h-.14l-5.34-7.37v13.93c0,.91.41,1.68,1.09,2.21v.14h-6.53v-.14Z"/><path class="cls-3" d="m278.78,47.76c.68-.53,1.09-1.3,1.09-2.21v-19.86c0-.91-.41-1.68-1.09-2.21v-.14h6.53v.14c-.68.53-1.09,1.3-1.09,2.21v19.86c0,.91.41,1.68,1.09,2.21v.14h-6.53v-.14Z"/><path class="cls-3" d="m287.93,47.76c.68-.53,1.09-1.3,1.09-2.21v-19.86c0-.91-.41-1.68-1.09-2.21v-.14h6.53v.14c-.68.53-1.09,1.3-1.09,2.21,0,4.81,6.23,7.69,7.79,11.72v-11.72c0-.91-.37-1.68-1.05-2.21v-.14h6.53v.14c-.71.53-1.09,1.3-1.09,2.21v19.86c0,.91.37,1.68,1.09,2.21v.14h-6.53v-.14c.68-.53,1.05-1.3,1.05-2.21,0-5.02-6.33-7.97-7.79-11.9v11.9c0,.91.41,1.68,1.09,2.21v.14h-6.53v-.14Z"/><path class="cls-3" d="m308.56,35.62c0-7.3,5.31-13.09,12.52-13.09,3.78,0,5.72,1.65,7.08,1.65.41,0,.71-.17.95-.49h.17v6.07h-.14c-1.84-1.89-5.04-3.23-7.89-3.23-4.83,0-8.3,3.86-8.3,9.09s3.57,9.05,8.54,9.05c1.63,0,2.83-.35,3.88-.95v-5.58c0-.91-.41-1.68-1.09-2.21v-.14h6.53v.14c-.68.53-1.09,1.3-1.09,2.21v4.53c0,1.09.48,1.79,1.05,2v.14c-1.77,1.75-4.9,3.9-9.29,3.9-7.32,0-12.93-5.69-12.93-13.09Z"/><path class="cls-3" d="m338.84,42.46c0-2.7,1.94-4.74,4.19-4.74,1.84,0,2.96,1.37,2.96,2.21,0,.18-.07.25-.17.25-.17,0-.48-.18-.99-.18-1.02,0-1.8.84-1.8,2.07,0,1.61,1.33,2.6,2.86,2.6,1.84,0,3.03-1.47,3.03-3.4,0-5.54-9.15-6.49-9.15-12.95,0-3.44,2.72-5.79,5.75-5.79,2.59,0,4.05,1.72,4.87,1.72.24,0,.58-.14.78-.46h.2v6h-.17c-1.26-1.68-3.27-3.19-5.04-3.19-1.29,0-2.04.77-2.04,1.75,0,3.44,9.19,5.4,9.19,12.77,0,4-2.86,7.58-7.38,7.58-3.98,0-7.08-2.81-7.08-6.25Z"/><path class="cls-3" d="m354.33,35.65c0-7.37,5.61-13.13,12.9-13.13s12.93,5.76,12.93,13.13-5.61,13.06-12.93,13.06-12.9-5.76-12.9-13.06Zm12.9,9.02c5,0,8.54-3.72,8.54-9.02s-3.54-9.09-8.54-9.09-8.54,3.79-8.54,9.09,3.57,9.02,8.54,9.02Z"/><path class="cls-3" d="m381.52,35.65c0-7.37,5.61-13.13,12.9-13.13s12.93,5.76,12.93,13.13-5.61,13.06-12.93,13.06-12.9-5.76-12.9-13.06Zm12.9,9.02c5,0,8.54-3.72,8.54-9.02s-3.54-9.09-8.54-9.09-8.54,3.79-8.54,9.09,3.57,9.02,8.54,9.02Z"/><path class="cls-3" d="m409.29,47.76c.68-.53,1.09-1.3,1.09-2.21v-19.86c0-.91-.41-1.68-1.09-2.21v-.14h6.53v.14c-.68.53-1.09,1.3-1.09,2.21,0,4.81,6.23,7.69,7.79,11.72v-11.72c0-.91-.37-1.68-1.05-2.21v-.14h6.53v.14c-.71.53-1.09,1.3-1.09,2.21v19.86c0,.91.37,1.68,1.09,2.21v.14h-6.53v-.14c.68-.53,1.05-1.3,1.05-2.21,0-5.02-6.33-7.97-7.79-11.9v11.9c0,.91.41,1.68,1.09,2.21v.14h-6.53v-.14Z"/></svg>
